tabicon.svg

<svg width="620" height="510" fill="none" xmlns="http://www.w3.org/2000/svg">
  <!-- Background putih dengan rounded corners -->
  <rect x="0" y="0" width="620" height="510" rx="20" ry="20" fill="white"/>
  
  <!-- Original SVG content -->
  <path d="M315.5 1.085c-150.5 3.5-222 85.5-254 197.5h32c9.5-72 88.5-170.5 222-170.5s190.903 83.483 230.5 178.5h26c-30.202-104.237-106-209-256.5-205.5z" fill="#525868" stroke="#525868"/>
  <path fill="#525868" stroke="#525868" d="M102.5 150.085h99v16h-99zM73.5 280.085h181v16h-181z"/>
  <path fill="#525868" stroke="#525868" d="M73.5 280.085h181v16h-181zM190.5 348.085h11v108h-11zM86.5 182.085h99v16h-99z"/>
  <circle cx="196.5" cy="330.085" r="21" fill="#525868" stroke="#525868"/>
  <circle cx="366.5" cy="345.085" r="15" fill="#525868" stroke="#525868"/>
  <path d="M608 231.085H499.5v25.5H608v-25.5zM267 222.585H12v25h255v-25z" fill="#525868" stroke="#525868"/>
  <circle cx="606" cy="243.585" r="12.5" fill="#525868" stroke="#525868"/>
  <circle cx="222" cy="154.585" r="25.5" fill="#525868" stroke="#525868"/>
  <circle cx="265.5" cy="290.085" r="18" fill="#525868" stroke="#525868"/>
  <circle cx="470.5" cy="317.085" r="12" fill="#525868" stroke="#525868"/>
  <circle cx="400.5" cy="378.085" r="15" fill="#525868" stroke="#525868"/>
  <circle cx="315.5" cy="369.085" r="21" fill="#525868" stroke="#525868"/>
  <circle cx="268.5" cy="334.085" r="21" fill="#525868" stroke="#525868"/>
  <circle cx="234" cy="377.585" r="14.5" fill="#525868" stroke="#525868"/>
  <path d="M100.5 396.585c-29.593-48.102-36.325-73.214-43-117H84c7.086 37.515 12.771 59.002 40.5 102 19.691 33.699 81 76.5 81 76.5v23.5c-41.552-22.536-64.865-34.853-105-85z" fill="#525868" stroke="#525868"/>
  <path d="M239.5 389.585h-13v101.5c4.095 2.771 6.751 3.951 13 4.5v-106zM275.5 352.085h-13l-1 150 14 1.5v-151.5zM323 387.585h-13.5v120c4.855 1.556 7.82 1.524 13.5 0v-120zM371 358.085h-13l-2 145.5 15-1.5v-144zM408.5 391.085h-14v105l14-4.5v-100.5zM427 483.585v-134l16 .5-1.5 126-14.5 7.5zM520 358.085c15.92-30.343 23.179-47.565 26.5-79.5h27c-2.489 35.923-8.637 55.491-27 89.5-33.596 53.133-52.572 71.759-86.5 98.5v-36.5c24.485-18.886 37.463-36.044 60-72z" fill="#525868"/>
  <path d="M239.5 389.585h-13v101.5c4.095 2.771 6.751 3.951 13 4.5v-106zM275.5 352.085h-13l-1 150 14 1.5v-151.5zM323 387.585h-13.5v120c4.855 1.556 7.82 1.524 13.5 0v-120zM371 358.085h-13l-2 145.5 15-1.5v-144zM408.5 391.085h-14v105l14-4.5v-100.5zM427 483.585v-134l16 .5-1.5 126-14.5 7.5zM520 358.085c15.92-30.343 23.179-47.565 26.5-79.5h27c-2.489 35.923-8.637 55.491-27 89.5-33.596 53.133-52.572 71.759-86.5 98.5v-36.5c24.485-18.886 37.463-36.044 60-72z" stroke="#525868"/>
  <circle cx="13" cy="235" r="12.5" fill="#525868" stroke="#525868"/>
  <path d="M459 319.5L427.5 349l15.5 2 26-23-10-8.5zM324 69l-64 156.5v22h15L324 128l52 177 46.5-125.5 30 55 14 22h35V231h-28L420 137l-44 110.5L324 69z" fill="#525868" stroke="#525868"/>
  <circle cx="323.5" cy="89.5" r="24" fill="#525868" stroke="#525868"/>
  <circle cx="375.5" cy="284.5" r="24" fill="#525868" stroke="#525868"/>
</svg>

<svg width='619' height='510' viewBox='0 0 619 510' fill='none' xmlns='http://www.w3.org/2000/svg'><path d='M315.5 1.08533C165 4.58536 93.5 86.5854 61.5 198.585H93.5C103 126.585 182 28.0853 315.5 28.0853C449 28.0853 506.403 111.568 546 206.585H572C541.798 102.348 466 -2.4147 315.5 1.08533Z' fill='#525868' stroke='#525868'/><rect x='102.5' y='150.085' width='99' height='16' fill='#525868' stroke='#525868'/><rect x='73.5' y='280.085' width='181' height='16' fill='#525868' stroke='#525868'/><rect x='73.5' y='280.085' width='181' height='16' fill='#525868' stroke='#525868'/><rect x='190.5' y='348.085' width='11' height='108' fill='#525868' stroke='#525868'/><rect x='86.5' y='182.085' width='99' height='16' fill='#525868' stroke='#525868'/><circle cx='196.5' cy='330.085' r='21' fill='#525868' stroke='#525868'/><circle cx='366.5' cy='345.085' r='15' fill='#525868' stroke='#525868'/><path d='M608 231.085H499.5V256.585H608V231.085Z' fill='#525868' stroke='#525868'/><path d='M267 222.585H12V247.585H267V222.585Z' fill='#525868' stroke='#525868'/><circle cx='606' cy='243.585' r='12.5' fill='#525868' stroke='#525868'/><circle cx='222' cy='154.585' r='25.5' fill='#525868' stroke='#525868'/><circle cx='265.5' cy='290.085' r='18' fill='#525868' stroke='#525868'/><circle cx='470.5' cy='317.085' r='12' fill='#525868' stroke='#525868'/><circle cx='400.5' cy='378.085' r='15' fill='#525868' stroke='#525868'/><circle cx='315.5' cy='369.085' r='21' fill='#525868' stroke='#525868'/><circle cx='268.5' cy='334.085' r='21' fill='#525868' stroke='#525868'/><circle cx='234' cy='377.585' r='14.5' fill='#525868' stroke='#525868'/><path d='M100.5 396.585C70.9067 348.483 64.1752 323.371 57.5 279.585H84C91.0862 317.1 96.7714 338.587 124.5 381.585C144.191 415.284 205.5 458.085 205.5 458.085V481.585C163.948 459.049 140.635 446.732 100.5 396.585Z' fill='#525868' stroke='#525868'/><path d='M239.5 389.585H226.5V491.085C230.595 493.856 233.251 495.036 239.5 495.585V389.585Z' fill='#525868'/><path d='M275.5 352.085H262.5L261.5 502.085L275.5 503.585V352.085Z' fill='#525868'/><path d='M323 387.585H309.5V507.585C314.355 509.141 317.32 509.109 323 507.585V387.585Z' fill='#525868'/><path d='M371 358.085H358L356 503.585L371 502.085V358.085Z' fill='#525868'/><path d='M408.5 391.085H394.5V496.085L408.5 491.585V391.085Z' fill='#525868'/><path d='M427 483.585V349.585L443 350.085L441.5 476.085L427 483.585Z' fill='#525868'/><path d='M520 358.085C535.92 327.742 543.179 310.52 546.5 278.585H573.5C571.011 314.508 564.863 334.076 546.5 368.085C512.904 421.218 493.928 439.844 460 466.585V430.085C484.485 411.199 497.463 394.041 520 358.085Z' fill='#525868'/><path d='M239.5 389.585H226.5V491.085C230.595 493.856 233.251 495.036 239.5 495.585V389.585Z' stroke='#525868'/><path d='M275.5 352.085H262.5L261.5 502.085L275.5 503.585V352.085Z' stroke='#525868'/><path d='M323 387.585H309.5V507.585C314.355 509.141 317.32 509.109 323 507.585V387.585Z' stroke='#525868'/><path d='M371 358.085H358L356 503.585L371 502.085V358.085Z' stroke='#525868'/><path d='M408.5 391.085H394.5V496.085L408.5 491.585V391.085Z' stroke='#525868'/><path d='M427 483.585V349.585L443 350.085L441.5 476.085L427 483.585Z' stroke='#525868'/><path d='M520 358.085C535.92 327.742 543.179 310.52 546.5 278.585H573.5C571.011 314.508 564.863 334.076 546.5 368.085C512.904 421.218 493.928 439.844 460 466.585V430.085C484.485 411.199 497.463 394.041 520 358.085Z' stroke='#525868'/><circle cx='13' cy='235' r='12.5' fill='#525868' stroke='#525868'/><path d='M459 319.5L427.5 349L443 351L469 328L459 319.5Z' fill='#525868' stroke='#525868'/><path d='M324 69L260 225.5V247.5H275L324 128L376 305L422.5 179.5L452.5 234.5L466.5 256.5H501.5V231H473.5L420 137L376 247.5L324 69Z' fill='#525868' stroke='#525868'/><circle cx='323.5' cy='89.5' r='24' fill='#525868' stroke='#525868'/><circle cx='375.5' cy='284.5' r='24' fill='#525868' stroke='#525868'/></svg>
